img/svg/star.svg

<svg width="12" height="13" viewBox="0 0 12 13" fill="none" xmlns="http://www.w3.org/2000/svg">
<path d="M5.23916 1.34164C5.47864 0.60459 6.52136 0.604592 6.76085 1.34164L7.6165 3.97508C7.7236 4.3047 8.03077 4.52786 8.37735 4.52786H11.1463C11.9213 4.52786 12.2435 5.51956 11.6165 5.97508L9.3764 7.60263C9.09601 7.80635 8.97868 8.16744 9.08578 8.49706L9.94144 11.1305C10.1809 11.8675 9.33733 12.4804 8.71036 12.0249L6.47023 10.3974C6.18984 10.1937 5.81016 10.1937 5.52977 10.3974L3.28964 12.0249C2.66266 12.4804 1.81908 11.8675 2.05856 11.1305L2.91422 8.49706C3.02132 8.16744 2.90399 7.80635 2.6236 7.60263L0.383465 5.97508C-0.243506 5.51956 0.0787158 4.52786 0.853695 4.52786H3.62265C3.96924 4.52786 4.2764 4.3047 4.3835 3.97508L5.23916 1.34164Z" fill="white"/>
</svg>

<svg xmlns="http://www.w3.org/2000/svg" width="12" height="13" fill="none" ><path d="M5.239 1.342c.239-.737 1.282-.737 1.522 0l.856 2.633a.8.8 0 0 0 .761.553h2.769c.775 0 1.097.992.47 1.447l-2.24 1.628a.8.8 0 0 0-.291.894l.856 2.633c.239.737-.604 1.35-1.231.894l-2.24-1.628a.8.8 0 0 0-.94 0l-2.24 1.628c-.627.455-1.471-.157-1.231-.894l.856-2.633a.8.8 0 0 0-.291-.894L.383 5.975c-.627-.456-.305-1.447.47-1.447h2.769a.8.8 0 0 0 .761-.553l.856-2.633z" fill="#fff"/></svg>
